src/data/imges/icon-3.svg

<svg width="60" height="59" xmlns="http://www.w3.org/2000/svg"><g fill="#F95738" fill-rule="evenodd"><path d="M60 15V5h-6V4c0-2.21-1.79-4-4-4s-4 1.79-4 4v1H34V4c0-2.21-1.79-4-4-4s-4 1.79-4 4v1H13V4c0-2.21-1.79-4-4-4S5 1.79 5 4v1H0v10h5v3H3v35h14.45c1.4 0 2.55-1.14 2.55-2.55v-29.9c0-1.4-1.14-2.55-2.55-2.55H13v-3h13v35.35l5.26 6.58.66-1.53C36.04 45.78 38 38.15 38 20.77V19h-4v-4h12v3h-1v22c0 5.84 1.79 11.43 5.19 16.18L52 58.72V55.6c0-17.61 1.77-25.03 2.95-29.93.59-2.46 1.05-4.4 1.05-6.67v-1h-2v-3h6Zm-2-8v6h-4V7h4ZM2 13V7h3v6H2Zm16 7.55v29.91c0 .3-.25.55-.55.55H16V20h1.45c.3 0 .55.25.55.55ZM14 20v31H5V20h9Zm-3-2H7V4c0-1.1.9-2 2-2s2 .9 2 2v14Zm2-5V7h13v6H13Zm23 8c-.02 15.93-1.72 23.43-5.27 32.06L28 49.65V21h8Zm-4-2h-4V4c0-1.1.9-2 2-2s2 .9 2 2v15Zm2-6V7h12v6H34Zm19 12.2c-1.11 4.66-2.76 11.55-2.98 26.93A25.682 25.682 0 0 1 47 40V20h6.97c-.11 1.64-.49 3.19-.97 5.2ZM52 18h-4V4c0-1.1.9-2 2-2s2 .9 2 2v14Z"/><path d="M30 29c.55 0 1-.45 1-1v-5c0-.55-.45-1-1-1s-1 .45-1 1v5c0 .55.45 1 1 1ZM49 29c.55 0 1-.45 1-1v-5c0-.55-.45-1-1-1s-1 .45-1 1v5c0 .55.45 1 1 1ZM7 29c.55 0 1-.45 1-1v-5c0-.55-.45-1-1-1s-1 .45-1 1v5c0 .55.45 1 1 1Z"/></g></svg>

<?xml version="1.0" encoding="UTF-8" standalone="no"?>
<svg width="60px" height="59px" viewBox="0 0 60 59" version="1.1" xmlns="http://www.w3.org/2000/svg" xmlns:xlink="http://www.w3.org/1999/xlink">
    <!-- Generator: Sketch 39.1 (31720) - http://www.bohemiancoding.com/sketch -->
    <title>Slice 1</title>
    <desc>Created with Sketch.</desc>
    <defs></defs>
    <g id="Page-1" stroke="none" stroke-width="1" fill="none" fill-rule="evenodd">
        <g id="noun_320906_cc" fill="#F95738">
            <g id="Group">
                <path d="M60,15 L60,5 L54,5 L54,4 C54,1.79 52.21,0 50,0 C47.79,0 46,1.79 46,4 L46,5 L34,5 L34,4 C34,1.79 32.21,0 30,0 C27.79,0 26,1.79 26,4 L26,5 L13,5 L13,4 C13,1.79 11.21,0 9,0 C6.79,0 5,1.79 5,4 L5,5 L0,5 L0,15 L5,15 L5,18 L3,18 L3,53 L17.45,53 C18.85,53 20,51.86 20,50.45 L20,20.55 C20,19.15 18.86,18 17.45,18 L13,18 L13,15 L26,15 L26,19 L26,21 L26,50.35 L31.26,56.93 L31.92,55.4 C36.04,45.78 38,38.15 38,20.77 L38,19 L34,19 L34,15 L46,15 L46,18 L45,18 L45,40 C45,45.84 46.79,51.43 50.19,56.18 L52,58.72 L52,55.6 C52,37.99 53.77,30.57 54.95,25.67 C55.54,23.21 56,21.27 56,19 L56,18 L54,18 L54,15 L60,15 L60,15 Z M58,7 L58,13 L54,13 L54,7 L58,7 L58,7 Z M2,13 L2,7 L5,7 L5,13 L2,13 L2,13 Z M18,20.55 L18,50.46 C18,50.76 17.75,51.01 17.45,51.01 L16,51.01 L16,20 L17.45,20 C17.75,20 18,20.25 18,20.55 L18,20.55 Z M14,20 L14,51 L5,51 L5,20 L13,20 L14,20 L14,20 Z M11,18 L7,18 L7,15 L7,5 L7,4 C7,2.9 7.9,2 9,2 C10.1,2 11,2.9 11,4 L11,5 L11,15 L11,18 L11,18 Z M13,13 L13,7 L26,7 L26,13 L13,13 L13,13 Z M36,21 C35.98,36.93 34.28,44.43 30.73,53.06 L28,49.65 L28,21 L34,21 L36,21 L36,21 Z M32,19 L28,19 L28,15 L28,5 L28,4 C28,2.9 28.9,2 30,2 C31.1,2 32,2.9 32,4 L32,5 L32,15 L32,19 L32,19 Z M34,13 L34,7 L46,7 L46,13 L34,13 L34,13 Z M53,25.2 C51.89,29.86 50.24,36.75 50.02,52.13 C48.04,48.42 47,44.28 47,40 L47,20 L53.97,20 C53.86,21.64 53.48,23.19 53,25.2 L53,25.2 Z M52,18 L48,18 L48,15 L48,5 L48,4 C48,2.9 48.9,2 50,2 C51.1,2 52,2.9 52,4 L52,5 L52,15 L52,18 L52,18 Z" id="Shape"></path>
                <path d="M30,29 C30.55,29 31,28.55 31,28 L31,23 C31,22.45 30.55,22 30,22 C29.45,22 29,22.45 29,23 L29,28 C29,28.55 29.45,29 30,29 L30,29 Z" id="Shape"></path>
                <path d="M49,29 C49.55,29 50,28.55 50,28 L50,23 C50,22.45 49.55,22 49,22 C48.45,22 48,22.45 48,23 L48,28 C48,28.55 48.45,29 49,29 L49,29 Z" id="Shape"></path>
                <path d="M7,29 C7.55,29 8,28.55 8,28 L8,23 C8,22.45 7.55,22 7,22 C6.45,22 6,22.45 6,23 L6,28 C6,28.55 6.45,29 7,29 L7,29 Z" id="Shape"></path>
            </g>
        </g>
    </g>
</svg>
